icons/high_bars.svg

<svg width="48" height="48" viewBox="0 0 48 48" fill="none" xmlns="http://www.w3.org/2000/svg">
<path fill-rule="evenodd" clip-rule="evenodd" d="M32 9C32 7.34315 33.3431 6 35 6H39C40.6569 6 42 7.34315 42 9V39C42 40.6569 40.6569 42 39 42H35C33.3431 42 32 40.6569 32 39V9ZM35 8C34.4477 8 34 8.44772 34 9V10.1716L36.1716 8H35ZM39 8L34 13V15.1716L40 9.17156V9C40 8.44772 39.5523 8 39 8ZM40 12L34 18V20.1716L40 14.1716V12ZM40 17L34 23V25.1716L40 19.1716V17ZM40 22L34 28V30.1716L40 24.1716V22ZM40 27L34 33V35.1716L40 29.1716V27ZM40 32L34 38V39C34 39.3199 34.1502 39.6046 34.3838 39.7877L40 34.1715V32ZM40 37L37 40H39C39.5523 40 40 39.5523 40 39V37Z" fill="black"/>
<path fill-rule="evenodd" clip-rule="evenodd" d="M19 21C19 19.3431 20.3431 18 22 18H26C27.6569 18 29 19.3431 29 21V39C29 40.6569 27.6569 42 26 42H22C20.3431 42 19 40.6569 19 39V21ZM24 20H26C26.0541 20 26.1072 20.0043 26.159 20.0126L21 25.1716V23L24 20ZM21 30.1716V28L27 22V24.1716L21 30.1716ZM27 29.1716V27L21 33V35.1716L27 29.1716ZM21 39V38L27 32V34.1717L21.3839 39.7877C21.1502 39.6047 21 39.3199 21 39ZM24.0001 40L27 37.0001V39C27 39.5523 26.5523 40 26 40H24.0001Z" fill="black"/>
<path fill-rule="evenodd" clip-rule="evenodd" d="M9 30C7.34315 30 6 31.3431 6 33V39C6 40.6569 7.34315 42 9 42H13C14.6569 42 16 40.6569 16 39V33C16 31.3431 14.6569 30 13 30H9ZM8 33C8 32.4477 8.44772 32 9 32H11.1716L8 35.1716V33ZM8 38L13.7071 32.2929C13.8881 32.4739 14 32.7239 14 33V34.1716L8.38389 39.7877C8.15019 39.6047 8 39.3199 8 39V38ZM11 40H13C13.5523 40 14 39.5523 14 39V37L11 40Z" fill="black"/>
</svg>

<svg
  xmlns="http://www.w3.org/2000/svg"
  width="24"
  height="24"
  viewBox="0 0 24 24"
  fill="none"
  stroke="currentColor"
  stroke-width="2"
  stroke-linecap="round"
  stroke-linejoin="round"
>
  <path
    fill-rule="evenodd"
    d="M32 9a3 3 0 0 1 3-3h4a3 3 0 0 1 3 3v30a3 3 0 0 1-3 3h-4a3 3 0 0 1-3-3zm3-1a1 1 0 0 0-1 1v1.172L36.172 8zm4 0-5 5v2.172l6-6V9a1 1 0 0 0-1-1m1 4-6 6v2.172l6-6zm0 5-6 6v2.172l6-6zm0 5-6 6v2.172l6-6zm0 5-6 6v2.172l6-6zm0 5-6 6v1c0 .32.15.605.384.788L40 34.172zm0 5-3 3h2a1 1 0 0 0 1-1z"
    clip-rule="evenodd"
  />
  <path
    fill-rule="evenodd"
    d="M19 21a3 3 0 0 1 3-3h4a3 3 0 0 1 3 3v18a3 3 0 0 1-3 3h-4a3 3 0 0 1-3-3zm5-1h2q.081 0 .159.013L21 25.172V23zm-3 10.172V28l6-6v2.172zm6-1V27l-6 6v2.172zM21 39v-1l6-6v2.172l-5.616 5.616A1 1 0 0 1 21 39m3 1 3-3v2a1 1 0 0 1-1 1z"
    clip-rule="evenodd"
  />
  <path
    fill-rule="evenodd"
    d="M9 30a3 3 0 0 0-3 3v6a3 3 0 0 0 3 3h4a3 3 0 0 0 3-3v-6a3 3 0 0 0-3-3zm-1 3a1 1 0 0 1 1-1h2.172L8 35.172zm0 5 5.707-5.707A1 1 0 0 1 14 33v1.172l-5.616 5.616A1 1 0 0 1 8 39zm3 2h2a1 1 0 0 0 1-1v-2z"
    clip-rule="evenodd"
  />
</svg>
